Sources/FrostedUI/Resources/Icons.xcassets/logout32.imageset/logout-32.svg

<svg width="32" height="32" viewBox="0 0 32 32" fill="none" xmlns="http://www.w3.org/2000/svg" data-fui-icon="true">
  <path
    d="M13 3.75C16.7279 3.75007 19.75 6.77212 19.75 10.5C19.75 10.9142 19.4142 11.2499 19 11.25C18.5858 11.25 18.25 10.9142 18.25 10.5C18.25 7.60055 15.8994 5.25007 13 5.25H8.5C5.60051 5.25 3.25 7.60051 3.25 10.5V21.5C3.25 24.3995 5.60051 26.75 8.5 26.75H13C15.8994 26.7499 18.25 24.3995 18.25 21.5C18.25 21.0858 18.5858 20.75 19 20.75C19.4142 20.7501 19.75 21.0858 19.75 21.5C19.75 25.2279 16.7279 28.2499 13 28.25H8.5C4.77209 28.25 1.75 25.2279 1.75 21.5V10.5C1.75 6.77208 4.77208 3.75 8.5 3.75H13ZM24.5312 10.4141C24.8547 10.1554 25.3272 10.2078 25.5859 10.5312L29.5859 15.5312C29.805 15.8051 29.805 16.1949 29.5859 16.4688L25.5859 21.4688C25.3272 21.7922 24.8547 21.8446 24.5312 21.5859C24.2078 21.3272 24.1553 20.8547 24.4141 20.5312L27.4395 16.75H11C10.5858 16.75 10.25 16.4142 10.25 16C10.25 15.5858 10.5858 15.25 11 15.25H27.4395L24.4141 11.4688C24.1553 11.1453 24.2078 10.6728 24.5312 10.4141Z"
    fill="currentColor"
  />
</svg>

<svg xmlns="http://www.w3.org/2000/svg" width="32" height="32" fill="none" data-fui-icon="true" viewBox="0 0 32 32"><path fill="currentColor" d="M13 3.75a6.75 6.75 0 0 1 6.75 6.75.75.75 0 0 1-1.5 0c0-2.9-2.35-5.25-5.25-5.25H8.5a5.25 5.25 0 0 0-5.25 5.25v11c0 2.9 2.35 5.25 5.25 5.25H13c2.9 0 5.25-2.35 5.25-5.25a.75.75 0 0 1 1.5 0A6.75 6.75 0 0 1 13 28.25H8.5a6.75 6.75 0 0 1-6.75-6.75v-11A6.75 6.75 0 0 1 8.5 3.75zm11.531 6.664a.75.75 0 0 1 1.055.117l4 5a.75.75 0 0 1 0 .938l-4 5a.75.75 0 0 1-1.172-.938l3.025-3.781H11a.75.75 0 0 1 0-1.5h16.44l-3.026-3.781a.75.75 0 0 1 .117-1.055"/></svg>
